X: 30816
T: Otter's Holt, The
R: reel
M: 4/4
K: Bminor
|:fBBA FEFB|A2FB ABde|fBBA FEFB|ABBA ~B3e|
fBBA FEFB|A2FB ABde|faaf effe|1 dBAF ~B3e:|2 dBAF ~B3c||
d2fd Adfa|bfaf effe|d2fd Adfa|bfaf ~e3f|
~d2fd Adfa|bfaf efde|fBBA FEFB|ABBA ~B3c|
dAdf a2fa|bfaf effe|dAdf adfa|bfaf ~e3f|
d2 (3fed adfa|bfaf efde|fBBA FEFB|ABBA ~B3e||

